X: 32
T:Lndler (Steyr und Wels, vor 1800)
M:3/4
L:1/8
C:trad
S:Volker Derschmidt bzw. Pichler/Fritz: "Wer tanzt nach meiner Pfeife "
N:Original Es, bei Pichler in F
K:G
"1." GBDBd2 |dcABd2 |GBDBd2 |dcABG2 :|
:dBGBdB|d2 cABd|dBGBdB|dcABG2 :|
"2." |:edcBAG|FDFA GB|AGAc Bd|edcBAG|FDFA GB|AGAF G2:|
:DGceBG|DGAFGB|{G}EGce BG|DGAF G2 :|
"3." dbcaBg|dbcaBg|dbcaBg|agafg2 :|
